<?xml version="1.0" encoding="UTF-8"?>
<map version="1.10" tiledversion="1.11.2" orientation="orthogonal" renderorder="right-down" width="25" height="19" tilewidth="32" tileheight="32" infinite="0" nextlayerid="3" nextobjectid="1">
 <tileset firstgid="1" source="tiles.tsx"/>
 <layer id="1" name="Tile Layer 1" width="25" height="19">
  <data encoding="csv">
12,12,12,12,12,12,12,12,12,12,12,12,12,12,12,12,12,12,12,12,12,12,12,12,12,
12,12,12,12,12,12,12,12,12,12,12,12,12,12,12,12,12,12,12,12,12,12,12,12,12,
12,12,12,12,12,12,12,12,12,12,12,12,1,12,12,12,12,12,12,12,12,12,12,12,12,
12,12,12,12,12,12,1,1,12,12,1,12,1,12,12,12,12,12,12,12,12,12,12,12,12,
12,12,12,12,1,1,1,1,1,1,1,1,1,1,1,12,12,12,12,12,12,12,12,12,12,
12,12,12,1,1,1,1,1,1,1,1,1,1,1,1,12,12,12,12,12,12,12,12,12,12,
12,12,1,1,1,1,1,1,1,1,1,1,1,1,1,12,12,12,12,12,12,12,12,1,1,
12,12,1,1,1,1,1,12,12,12,12,12,12,1,1,12,12,12,12,12,12,1,1,1,1,
12,12,1,1,1,1,1,1,1,12,12,12,12,1,1,12,12,12,1,1,1,1,1,1,1,
12,12,12,12,1,1,1,1,1,1,12,12,12,1,1,12,12,12,1,1,1,1,1,1,1,
12,12,12,12,12,1,1,1,1,1,1,12,12,1,1,12,12,1,1,1,1,1,1,12,12,
12,12,12,12,12,12,1,1,1,1,1,12,12,1,1,12,12,1,1,1,1,1,1,12,12,
1,1,1,1,1,1,12,1,1,1,1,12,12,1,1,12,12,1,1,1,1,1,1,12,12,
1,1,1,1,1,1,1,1,1,1,1,12,12,1,1,1,1,1,1,12,12,1,1,12,12,
1,1,1,1,1,1,1,1,1,1,1,12,12,1,1,1,1,1,1,12,12,1,1,12,12,
1,1,1,1,1,1,1,1,12,12,12,12,12,1,1,1,1,1,1,12,12,1,1,12,12,
1,1,1,1,1,1,1,1,1,12,12,12,12,12,12,12,12,12,12,12,12,1,1,12,12,
12,12,12,1,1,1,1,1,1,1,12,12,12,12,12,12,12,12,12,12,12,1,1,12,12,
12,12,12,12,12,12,12,12,12,12,12,12,12,12,12,12,12,12,12,12,12,1,1,12,12
</data>
 </layer>
 <layer id="2" name="spikes" width="25" height="19">
  <data encoding="csv">
0,0,0,0,0,0,0,0,0,0,0,0,0,0,0,0,0,0,0,0,0,0,0,0,0,
0,0,0,0,0,0,0,0,0,0,0,0,0,0,0,0,0,0,0,0,0,0,0,0,0,
0,0,0,0,0,0,0,0,0,0,0,0,1073741837,0,0,0,0,0,0,0,0,0,0,0,0,
0,0,0,0,0,0,1073741837,1073741837,0,0,1073741837,0,0,0,0,0,0,0,0,0,0,0,0,0,0,
0,0,0,0,0,0,0,0,1073741837,1073741837,0,0,0,1073741837,1073741837,0,0,0,0,0,0,0,0,0,0,
0,0,0,0,0,0,0,0,0,0,0,0,0,0,0,0,0,0,0,0,0,0,0,0,0,
0,0,0,0,0,0,0,0,0,0,0,0,0,0,0,0,0,0,0,0,0,0,0,0,0,
0,0,0,0,0,0,0,0,0,0,0,0,0,0,0,0,0,0,0,0,0,0,0,0,0,
0,0,0,0,0,0,0,0,0,0,0,0,0,0,0,0,0,0,0,0,1073741837,0,0,0,0,
0,0,0,0,0,0,0,0,0,0,0,0,0,0,0,0,0,0,0,0,0,0,0,0,0,
0,0,0,0,0,0,0,0,0,0,0,0,0,0,0,0,0,0,0,0,0,0,0,0,0,
0,0,0,0,0,0,0,0,0,0,0,0,0,0,0,0,0,0,0,0,0,0,0,0,0,
0,0,0,0,0,0,0,0,0,0,0,0,0,0,0,0,0,0,0,0,0,0,0,0,0,
0,0,0,0,0,0,0,0,0,0,0,0,0,0,0,0,3221225485,0,0,0,0,0,0,0,0,
0,0,0,0,0,0,0,0,0,0,0,0,0,0,0,0,0,0,0,0,0,0,0,0,0,
0,0,0,0,0,0,0,0,0,0,0,0,0,0,0,0,0,0,0,0,0,0,0,0,0,
0,0,0,0,0,0,0,0,0,0,0,0,0,0,0,0,0,0,0,0,0,0,0,0,0,
0,0,0,0,13,0,0,0,0,0,0,0,0,0,0,0,0,0,0,0,0,0,0,0,0,
0,0,0,0,0,0,0,0,0,0,0,0,0,0,0,0,0,0,0,0,0,13,13,0,0
</data>
 </layer>
</map>
