<?xml version="1.0" encoding="UTF-8"?>
<map version="1.10" tiledversion="1.11.2" orientation="orthogonal" renderorder="right-down" width="25" height="19" tilewidth="32" tileheight="32" infinite="0" nextlayerid="2" nextobjectid="1">
 <tileset firstgid="1" source="../../tiles.tsx"/>
 <layer id="1" name="Tile Layer 1" width="25" height="19">
  <data encoding="csv">
0,0,0,0,0,0,0,0,0,0,0,0,0,0,0,0,0,0,0,0,0,0,0,0,0,
0,0,0,0,0,0,0,0,0,0,0,0,0,0,0,0,0,0,0,0,0,0,0,0,0,
0,0,0,0,0,0,0,0,0,0,0,0,0,0,0,0,0,0,0,0,0,0,0,0,0,
0,0,0,0,0,0,0,0,0,0,0,0,0,0,0,0,0,0,0,0,0,0,0,0,0,
0,0,0,0,0,0,0,0,0,0,0,0,0,0,0,0,0,0,0,0,0,0,0,0,0,
0,0,0,0,0,0,0,0,0,0,0,0,0,0,0,0,0,0,0,0,0,0,0,0,0,
0,0,0,0,0,0,0,0,0,0,0,0,0,0,0,0,0,0,0,0,0,0,0,0,0,
0,0,0,0,0,0,0,0,0,0,0,0,0,0,0,0,0,0,0,0,0,10,0,0,0,
0,0,0,0,0,0,0,0,0,0,0,0,0,0,0,0,0,0,0,0,0,9,0,0,0,
0,0,0,0,0,0,0,0,0,0,0,0,0,0,0,0,0,0,0,0,0,8,0,0,0,
0,0,0,7,0,0,0,0,0,0,0,0,0,0,0,0,0,0,0,0,5,11,6,0,0,
0,0,0,10,0,0,0,0,0,0,0,0,0,0,0,0,0,0,0,0,3,3,3,3,3,
0,0,0,7,0,0,0,0,0,0,0,0,0,0,0,0,0,0,0,3,2,2,12,12,12,
0,0,5,11,6,0,0,0,0,9,0,0,0,0,0,0,0,0,0,0,0,1,1,12,1,
3,3,3,3,3,3,0,0,0,10,0,0,0,0,8,0,0,0,0,0,0,1,1,1,1,
2,2,2,2,2,2,3,0,0,7,0,0,0,0,7,0,0,0,0,0,1,1,1,1,1,
2,2,2,2,2,2,2,3,5,11,6,0,0,5,11,6,0,0,0,3,1,1,1,1,1,
2,2,2,2,2,2,2,2,3,3,3,3,3,3,3,3,3,3,3,2,12,1,1,1,1,
2,2,2,2,2,2,2,2,2,2,2,2,2,2,2,2,2,2,2,2,2,12,12,12,12
</data>
 </layer>
</map>
